packages/icons/svg/Outline/person.svg

<svg fill="none" height="24" viewBox="0 0 24 24" width="24" xmlns="http://www.w3.org/2000/svg"><path clip-rule="evenodd" d="m14 7.00007c0-1.103-.897-2-2-2s-2 .897-2 2 .897 2 2 2 2-.897 2-2zm2-.00007c0 2.206-1.794 4-4 4s-4-1.794-4-4 1.794-4 4-4 4 1.794 4 4zm-11 12.9999c0-3.86 3.141-7 7-7s7 3.14 7 7c0 .552-.447 1-1 1s-1-.448-1-1c0-2.757-2.243-5-5-5s-5 2.243-5 5c0 .552-.447 1-1 1s-1-.448-1-1z" fill="#6b7280" fill-rule="evenodd"/></svg>

<svg width="24" height="24" viewBox="0 0 24 24" fill="none" xmlns="http://www.w3.org/2000/svg">
<g id="Icon/Outline/person">
<path id="Mask" fill-rule="evenodd" clip-rule="evenodd" d="M14 7C14 5.897 13.103 5 12 5C10.897 5 10 5.897 10 7C10 8.103 10.897 9 12 9C13.103 9 14 8.103 14 7ZM16 7C16 9.206 14.206 11 12 11C9.794 11 8 9.206 8 7C8 4.794 9.794 3 12 3C14.206 3 16 4.794 16 7ZM5 20C5 16.14 8.141 13 12 13C15.859 13 19 16.14 19 20C19 20.552 18.553 21 18 21C17.447 21 17 20.552 17 20C17 17.243 14.757 15 12 15C9.243 15 7 17.243 7 20C7 20.552 6.553 21 6 21C5.447 21 5 20.552 5 20Z" fill="#000000"/>
</g>
</svg>
